assets/images/ammoType/heavy_mythic.svg

<svg clip-rule="evenodd" fill-rule="evenodd" height="512" image-rendering="optimizeQuality" shape-rendering="geometricPrecision" text-rendering="geometricPrecision" viewBox="0 0 512 512" width="512" xmlns="http://www.w3.org/2000/svg"><g clip-rule="evenodd" fill-rule="evenodd" image-rendering="optimizeQuality" shape-rendering="geometricPrecision" text-rendering="geometricPrecision"><g transform="matrix(.953125 0 0 .953125 12 41.546875)"><path d="m324 375 45-79h23l49-56h40z" fill="#cb013f"/><path d="m281 360c1-2 1-1 0 0z" fill="#8a0020"/><path d="m231 360c-1-2-1-1 0 0z" fill="#8a0020"/><path d="m111 60 12 18-23 40h-19c13 24 25 45 39 68 8.52125-1.33487 16.42371.66969 20 7l49 82c5.37746 10.34667 3.58013 22.01169-3 31.04l46 75.96v-12h48v12l43.98019-75.96c-3.82415-9.19949-6.14581-20.8609-.98019-31.04l49-82c4.05898-6.89617 12.58627-7 20-7 14-23 26-44 39-68h-19l-23-40 12-18h-78c-1.56053 8.203883-8.98657 15.854679-17 16h-50-50c-7.62237-.10227-16.85396-8.475247-17-16z" fill="#ca003e" fill-opacity=".75" stroke="#ff2d59" stroke-width="10"/><path d="m456 145h56l-116 133h-16z" fill="#cb013f"/><path d="m470 68v35l-40-67h-15l47 81-176 306h-30-30l-176-306 47-81h-15l-40 67v-35l33-56h121l18 24h84l18-24h121zm-273-21h-93l-9 14 12 18-15 26h-22l-6 11 48 84h17l51 87-10 15 63 109h5l7.24296-27h24l4.75704 27h5l63-109-10-15 51-87h17l48-84-6-11h-22l-15-26 12-18-9-14h-93l-9 15h-100z" fill="#ca003e"/><g fill="#cb013f"><path d="m290 23 8-11 8-12c-17 0-33 0-50 0s-33 0-50 0l8 12 8 11h34z"/><path d="m201 398-97-83 106 135h92l106-135-97 83-20 34h-70zm-145-253h-56l116 133h16zm132 230-45-79h-23l-49-56h-40z"/></g></g><g fill="#8a0020"><g transform="matrix(.953125 0 0 .953125 12 41.546875)"><path d="m281 360c1-2 1-1 0 0z"/><path d="m231 360c-1-2-1-1 0 0z"/><path d="m275 170 5-10v-23h30v23l6 10zm41 109.54653c-.68643 3.37181-1.39075 6.69922-.71411 13.45347h-39.28589l-1-4v-109l2-2h37l2 2zm0 20.45347v5l-3 2v6h1.18577l-16.79971 29h-19.38606v-7l-3-1v-21h3v-6l-3-2v-5zm-102.36084 42-17.63916-29h3v-6l-3-2v-5h41v5l-3 2v6h3v21l-3 1v7zm-16.92516-49-.714-13.79871v-99.20129l2-2h37l2 2v109l-1 4zm20.286-212.127c14.95463 22.1048 15.44548 32.00895 15 49.127h-30c.5199-16.51572 1.10945-28.30436 15-49.127zm79.125 0c13.84837 20.21951 14.33135 31.70677 13.875 49.127h-30c.37525-17.58766.68059-28.22054 16.125-49.127zm-100.125 89.127 6-10v-23h30v23l5 10z"/></g><g><path d="m281 360c1-2 1-1 0 0z"/><path d="m231 360c-1-2-1-1 0 0z"/></g></g></g></svg>

<?xml version="1.0" encoding="UTF-8" standalone="no"?>
<!-- Creator: CorelDRAW X8 -->

<svg
   xml:space="preserve"
   width="512"
   height="512"
   version="1.1"
   style="clip-rule:evenodd;fill-rule:evenodd;image-rendering:optimizeQuality;shape-rendering:geometricPrecision;text-rendering:geometricPrecision"
   viewBox="0 0 512 512"
   id="svg29"
   sodipodi:docname="Mythic_Heavy_Rounds.svg"
   inkscape:version="1.1.1 (3bf5ae0d25, 2021-09-20)"
   xmlns:inkscape="http://www.inkscape.org/namespaces/inkscape"
   xmlns:sodipodi="http://sodipodi.sourceforge.net/DTD/sodipodi-0.dtd"
   xmlns="http://www.w3.org/2000/svg"
   xmlns:svg="http://www.w3.org/2000/svg"><sodipodi:namedview
   id="namedview31"
   pagecolor="#ffffff"
   bordercolor="#666666"
   borderopacity="1.0"
   inkscape:pageshadow="2"
   inkscape:pageopacity="0.0"
   inkscape:pagecheckerboard="0"
   showgrid="false"
   inkscape:zoom="0.50000001"
   inkscape:cx="58.999998"
   inkscape:cy="175"
   inkscape:window-width="1366"
   inkscape:window-height="697"
   inkscape:window-x="-8"
   inkscape:window-y="-8"
   inkscape:window-maximized="1"
   inkscape:current-layer="Layer_x0020_1" />
 <defs
   id="defs4">
  <style
   type="text/css"
   id="style2">
   <![CDATA[
    .fil1 {fill:#8A0020}
    .fil2 {fill:#CA003E}
    .fil0 {fill:#CB013F}
    .fil3 {fill:#ED0049}
    .fil4 {fill:#FF2D59}
   ]]>
  </style>
 <style
   type="text/css"
   id="style918">
   <![CDATA[
    .fil1 {fill:#8A0020}
    .fil2 {fill:#CA003E}
    .fil0 {fill:#CB013F}
    .fil3 {fill:#ED0049}
    .fil4 {fill:#FF2D59}
   ]]>
  </style><style
   type="text/css"
   id="style965">
   <![CDATA[
    .fil1 {fill:#8A0020}
    .fil2 {fill:#CA003E}
    .fil0 {fill:#CB013F}
    .fil3 {fill:#ED0049}
    .fil4 {fill:#FF2D59}
   ]]>
  </style></defs>
 <g
   id="Layer_x0020_1"
   inkscape:label="Layer 1"
   inkscape:groupmode="layer">
  <metadata
   id="CorelCorpID_0Corel-Layer" />
  
 <g
   id="g945"
   transform="matrix(0.953125,0,0,0.953125,12,41.546875)"><g
     id="_1573068069456"
     style="clip-rule:evenodd;fill-rule:evenodd;image-rendering:optimizeQuality;shape-rendering:geometricPrecision;text-rendering:geometricPrecision"><path
       id="polygon9-3"
       class="fil0"
       style="fill:#cb013f"
       d="m 324,375 45,-79 h 23 l 49,-56 h 40 z"
       sodipodi:nodetypes="cccccc" /><path
       class="fil1"
       d="m 281,360 c 1,-2 1,-1 0,0 z"
       id="path11-4" /><path
       class="fil1"
       d="m 231,360 c -1,-2 -1,-1 0,0 z"
       id="path19-2" /><g
       id="g12902"><path
         id="path21-0"
         class="fil3"
         d="m 111,60 12,18 -23,40 H 81 c 13,24 25,45 39,68 8.52125,-1.33487 16.42371,0.66969 20,7 l 49,82 c 5.37746,10.34667 3.58013,22.01169 -3,31.04 L 232,382 v -12 h 48 v 12 l 43.98019,-75.96 C 320.15604,296.84051 317.83438,285.1791 323,275 l 49,-82 c 4.05898,-6.89617 12.58627,-7 20,-7 14,-23 26,-44 39,-68 H 412 L 389,78 401,60 h -78 c -1.56053,8.203883 -8.98657,15.854679 -17,16 h -50 -50 c -7.62237,-0.10227 -16.85396,-8.475247 -17,-16 z"
         sodipodi:nodetypes="cccccccccccccccccccccccccc"
         style="fill:#ca003e;fill-opacity:0.75;stroke:#ff2d59;stroke-width:10;stroke-miterlimit:4;stroke-dasharray:none;stroke-opacity:1" /><path
         id="polygon7-2"
         class="fil0"
         style="fill:#cb013f"
         d="m 456,145 h 56 L 396,278 h -16 z" /><path
         class="fil2"
         d="m 470,68 v 35 L 430,36 h -15 l 47,81 -176,306 H 256 226 L 50,117 97,36 H 82 L 42,103 V 68 L 75,12 h 121 l 18,24 h 84 L 316,12 H 437 Z M 197,47 h -93 l -9,14 12,18 -15,26 H 70 l -6,11 48,84 h 17 l 51,87 -10,15 63,109 h 5 l 7.24296,-27 h 24 L 274,411 h 5 l 63,-109 -10,-15 51,-87 h 17 l 48,-84 -6,-11 H 420 L 405,79 417,61 408,47 h -93 l -9,15 H 206 Z"
         id="path13-9"
         sodipodi:nodetypes="ccccccccccccccccccccccccccccccccccccccccccccccccccc" /><path
         class="fil0"
         d="m 290,23 8,-11 8,-12 c -17,0 -33,0 -50,0 -17,0 -33,0 -50,0 l 8,12 8,11 c 12,0 23,0 34,0 11,0 22,0 34,0 z"
         id="path15-4" /><path
         class="fil0"
         d="m 201,398 -97,-83 106,135 h 92 l 106,-135 -97,83 -20,34 H 221 Z M 56,145 H 0 l 116,133 h 16 z M 188,375 143,296 H 120 L 71,240 H 31 Z"
         id="path17-4"
         sodipodi:nodetypes="cccccccccccccccccccc" /></g></g><g
     style="clip-rule:evenodd;fill-rule:evenodd;image-rendering:optimizeQuality;shape-rendering:geometricPrecision;text-rendering:geometricPrecision"
     id="g963"><g
       id="Layer_x0020_1-7">
  <metadata
   id="CorelCorpID_0Corel-Layer-6" />
  <g
   id="_1572945391968">
   
   
   <path
   class="fil1"
   d="m 281,360 c 1,-2 1,-1 0,0 z"
   id="path927" />
   
   
   
   <path
   class="fil1"
   d="m 231,360 c -1,-2 -1,-1 0,0 z"
   id="path935" />
   
   
   <path
   class="fil1"
   d="m 275,170 5,-10 v -23 h 30 v 23 l 6,10 z m 41,109.54653 c -0.68643,3.37181 -1.39075,6.69922 -0.71411,13.45347 H 276 l -1,-4 V 180 l 2,-2 h 37 l 2,2 z M 316,300 v 5 l -3,2 v 6 h 1.18577 l -16.79971,29 H 278 v -7 l -3,-1 v -21 h 3 v -6 l -3,-2 v -5 z M 213.63916,342 196,313 h 3 v -6 l -3,-2 v -5 h 41 v 5 l -3,2 v 6 h 3 v 21 l -3,1 v 7 z M 196.714,293 196,279.20129 V 180 l 2,-2 h 37 l 2,2 v 109 l -1,4 z M 217,80.873 c 14.95463,22.1048 15.44548,32.00895 15,49.127 h -30 c 0.5199,-16.51572 1.10945,-28.30436 15,-49.127 z m 79.125,0 C 309.97337,101.09251 310.45635,112.57977 310,130 h -30 c 0.37525,-17.58766 0.68059,-28.22054 16.125,-49.127 z M 196,170 l 6,-10 v -23 h 30 v 23 l 5,10 z"
   id="path941"
   sodipodi:nodetypes="cccccccccccccccccccccccccccccccccccccccccccccccccccccccccccccccccccccc" />
  </g>
 </g></g></g><g
   style="clip-rule:evenodd;fill-rule:evenodd;image-rendering:optimizeQuality;shape-rendering:geometricPrecision;text-rendering:geometricPrecision"
   id="g1010"><g
     id="Layer_x0020_1-0">
  <metadata
   id="CorelCorpID_0Corel-Layer-3" />
  <g
   id="_1573059478944">
   
   
   <path
   class="fil1"
   d="m 281,360 c 1,-2 1,-1 0,0 z"
   id="path974" />
   
   
   
   <path
   class="fil1"
   d="m 231,360 c -1,-2 -1,-1 0,0 z"
   id="path982" />
   
   
   
  </g>
 </g></g></g>
</svg>
